X:51
T:Honorable Colonel Wemyss, The
R:Reel
S:MacDonald - Skye Collection
N:pg.145
M:C
L:1/8
K:F
C|F2 AF ABcf|Afc>F EGGA|F2 AF ABcA|dfeg fFF:|
g|a/g/f/e/ fc ABcf|Afc>F EGGg|fefc ABcA|efeg fFFg|
afge fdcB|Afc>F EGGB|AFcA Bcde|fcdB AFF||
